icons/outline/circle-dashed-letter-k.svg

<!--
tags: [alphabet, uppercase, character, text, symbol, type, font, typography, letter, writing]
category: Letters
unicode: "ff90"
version: "3.11"
-->
<svg
  xmlns="http://www.w3.org/2000/svg"
  width="24"
  height="24"
  viewBox="0 0 24 24"
  fill="none"
  stroke="currentColor"
  stroke-width="2"
  stroke-linecap="round"
  stroke-linejoin="round"
>
  <path d="M10 8v8m4 -8l-2.5 4l2.5 4m-4 -4h1.5m-2.94 -8.31a9 9 0 0 0 -2.92 1.95m-1.95 2.92a9 9 0 0 0 -.69 3.44m.69 3.44a9 9 0 0 0 1.95 2.92m2.92 1.95a9 9 0 0 0 3.44 .69m3.44 -.69a9 9 0 0 0 2.92 -1.95m1.95 -2.92a9 9 0 0 0 .69 -3.44m-.69 -3.44a9 9 0 0 0 -1.95 -2.92m-2.92 -1.95a9 9 0 0 0 -3.44 -.69" />
</svg>

<!--
tags: [alphabet, uppercase, character, text, symbol, type, font, typography, letter, writing]
category: Letters
unicode: "ff90"
version: "3.11"
-->
<svg
  xmlns="http://www.w3.org/2000/svg"
  width="24"
  height="24"
  viewBox="0 0 24 24"
  fill="none"
  stroke="currentColor"
  stroke-width="2"
  stroke-linecap="round"
  stroke-linejoin="round"
>
    <path d="M10 8v8M14 8l-2.5 4l2.5 4M10 12h1.5M8.56 3.69a9 9 0 0 0 -2.92 1.95M3.69 8.56a9 9 0 0 0 -.69 3.44M3.69 15.44a9 9 0 0 0 1.95 2.92M8.56 20.31a9 9 0 0 0 3.44 .69M15.44 20.31a9 9 0 0 0 2.92 -1.95M20.31 15.44a9 9 0 0 0 .69 -3.44M20.31 8.56a9 9 0 0 0 -1.95 -2.92M15.44 3.69a9 9 0 0 0 -3.44 -.69" />
</svg>
